X:1
T:Isle Au Haut Lullaby
M:4/4
L:1/8
K:C
 z G,C C D2 E2| z2 D2 F4| z2 B,C D2 B,2| C8| C3 CD DE E| F E3 D4| z2 B,C D2 B,2|\
 C8| z2 EF G2 G2| F3 E D4| z2 B,C D2 F2| E8| z2 EF G3 G| F E3 D4| z2 B,C D2 B,2|\
 C8|
